X: 27502
T: Mom's
R: jig
M: 6/8
K: Adorian
EAA AGA|B2A A2G|EAA ABc|~B3 BAG|
EAA AGA|B2A Aaf|~g3 gfe|dBG BAG:|
AaA g2A|fed edB|AaA g2e|dBG BAB|
AaA g2A|fed edB|ABc Bcd|cde dBG:|
~E3 ABd|BcA A2D|~E3 ABc|~B3 BAG|
~E3 ABd|BcA AEF|~G3 GFE|DB,G, B,A,B,|
A,2A ABd|BcA A2G,|A,2A ABc|~B3 BAB|
A,2A ABd|BcA Aaf|~g3 gfe|dBG BAG:|

